src/svgs/line-round-limit.svg

<?xml version="1.0" encoding="UTF-8" standalone="no"?>
<!-- Created with Inkscape (http://www.inkscape.org/) -->

<svg
   xmlns:dc="http://purl.org/dc/elements/1.1/"
   xmlns:cc="http://creativecommons.org/ns#"
   xmlns:rdf="http://www.w3.org/1999/02/22-rdf-syntax-ns#"
   xmlns:svg="http://www.w3.org/2000/svg"
   xmlns="http://www.w3.org/2000/svg"
   xmlns:sodipodi="http://sodipodi.sourceforge.net/DTD/sodipodi-0.dtd"
   xmlns:inkscape="http://www.inkscape.org/namespaces/inkscape"
   width="20"
   height="20"
   id="svg4863"
   version="1.1"
   inkscape:version="0.48.5 r10040"
   sodipodi:docname="line-round-limit.svg"
   inkscape:export-filename="/Users/saman/work_repos/base/latest/icons/text-vertical-center.png"
   inkscape:export-xdpi="180"
   inkscape:export-ydpi="180">
  <defs
     id="defs4865" />
  <sodipodi:namedview
     id="base"
     pagecolor="#ffffff"
     bordercolor="#666666"
     borderopacity="1.0"
     inkscape:pageopacity="0.0"
     inkscape:pageshadow="2"
     inkscape:zoom="32"
     inkscape:cx="7.6667322"
     inkscape:cy="6.5706331"
     inkscape:document-units="px"
     inkscape:current-layer="layer1"
     showgrid="false"
     inkscape:snap-bbox="true"
     inkscape:snap-nodes="true"
     inkscape:window-width="1608"
     inkscape:window-height="970"
     inkscape:window-x="66"
     inkscape:window-y="45"
     inkscape:window-maximized="0"
     showguides="false"
     inkscape:guide-bbox="true">
    <inkscape:grid
       type="xygrid"
       id="grid4886"
       empspacing="5"
       visible="true"
       enabled="true"
       snapvisiblegridlinesonly="true" />
    <sodipodi:guide
       orientation="0,1"
       position="22,15"
       id="guide6423" />
    <sodipodi:guide
       orientation="0,1"
       position="21,5"
       id="guide6425" />
    <sodipodi:guide
       orientation="0,1"
       position="33,95"
       id="guide7108" />
  </sodipodi:namedview>
  <metadata
     id="metadata4868">
    <rdf:RDF>
      <cc:Work
         rdf:about="">
        <dc:format>image/svg+xml</dc:format>
        <dc:type
           rdf:resource="http://purl.org/dc/dcmitype/StillImage" />
        <dc:title />
      </cc:Work>
    </rdf:RDF>
  </metadata>
  <g
     inkscape:label="Layer 1"
     inkscape:groupmode="layer"
     id="layer1"
     transform="translate(0,-1032.3622)">
    <g
       transform="matrix(1.9999805,0,0,1.7500055,-539.99976,-1081.7773)"
       id="g5863" />
    <g
       id="g7094" />
    <g
       transform="translate(-141,80)"
       id="g7149-6" />
    <path
       style="fill:#000000"
       d="M 7 5 C 5.9013528 5 5 5.9014 5 7 C 5 8.0986 5.9013528 9 7 9 C 8.0986472 9 9 8.0986 9 7 C 9 5.9014 8.0986472 5 7 5 z M 7 6 C 7.5582071 6 8 6.4418 8 7 C 8 7.5582 7.5582071 8 7 8 C 6.4417929 8 6 7.5582 6 7 C 6 6.4418 6.4417929 6 7 6 z M 13 8 C 10 8 8 10 8 13 L 8 15 L 11 15 L 11 13 C 11 12 12 11 13 11 L 15 11 L 15 8 L 13 8 z "
       transform="translate(0,1032.3622)"
       id="polygon3025" />
  </g>
</svg>

<?xml version="1.0" encoding="UTF-8" standalone="yes"?>
<svg viewBox="0 0 20 20">
  <path d="M7,5C5.9,5,5,5.9,5,7s0.9,2,2,2s2-0.9,2-2S8.1,5,7,5z M7,6c0.6,0,1,0.4,1,1S7.6,8,7,8S6,7.6,6,7S6.4,6,7,6z M13,8
	c-3,0-5,2-5,5v2h3v-2c0-1,1-2,2-2h2V8H13z"/>
</svg>
